X: 17155
T: Hen And Her Brood, The
R: reel
M: 4/4
K: Adorian
|~A3c ~B3G|Az ef gedB|~B2AB BE~E2|1 ~G3A BcdB:|2 ~G3A Bcdg||
|:efge ~a3z|efga gedg|efge abba|1 agge d2zg:|2 agge dedB||

